svg/black/grc.svg

<svg height="32" viewBox="0 0 32 32" width="32" xmlns="http://www.w3.org/2000/svg"><path d="m16 32c-8.836556 0-16-7.163444-16-16s7.163444-16 16-16 16 7.163444 16 16-7.163444 16-16 16zm.0527013-27h-.1095097c-.0635704.04939-.1224866.107085-.1914778.14707-2.984578 1.72997-5.9691013 3.460105-8.95767646 5.18309-.20390711.117535-.28976273.242385-.28921518.49104.00761092 3.46434.00427088 6.92868-.00481843 10.39302-.00054755.209935.0590805.329395.24179747.434555 2.15881997 1.242945 4.3141904 2.49194 6.4681372 3.74341.9139134.53097 1.8223513 1.071565 2.7332532 1.607815h.1095097c.0432016-.031845.0838297-.0682.1299333-.094985 3.0152955-1.74889 6.0307553-3.497615 9.0475293-5.243975.1659619-.09603.2705985-.190795.2698319-.41866-.0114985-3.492005-.0128126-6.984065-.0079394-10.476125.0002737-.20504-.0735906-.31229-.2405929-.408595-2.5377236-1.4641-5.0736403-2.93139-7.6076954-4.40187-.5350097-.310475-1.0609849-.63679-1.5910668-.95579zm2.8062086 17.4795665c-.064775-.04433-.1951463-.06325-.2584429-.027775-.6766058.37862-1.3458745.770385-2.0165668 1.15962-.0288011.016775-.0514696.04422-.0916597.079585.4821713.3014.950873.59444 1.464145.91531-.4417622.258995-.8674265.45573-1.2308345.734415-.5058802.38797-.9457808.390445-1.4509491-.00022-.3507049-.27126-.7637756-.46112-1.1482095-.688655-.0131412-.007755-.0179048-.029865-.0476915-.082885.6326377-.377245 4.3566802-2.572075 5.5270654-3.37744 1.0714431-.73733 1.9501492-1.69554 2.4247095-2.94217.1993625-.523765.2876273-1.09065.4194771-1.63955.0179595-.07469-.0044352-.15906-.0088703-.253825-.0966424-.00528-.1767487-.013475-.2568003-.01353-2.0074228-.000935-4.0147908-.00242-6.0222136.002585-.0975732.000275-.2453018.02816-.2848896.094325-.4356296.728145-.8544496 1.466465-1.3048631 2.249005h4.425507c.0101844.0231.0203688.0462.0305532.069245-.1833192.15433-.3510881.33374-.5523123.45881-1.185169.73656-5.4495324 3.40923-6.3815149 4.03249-.1454837.097295-.2402096.100595-.3847625.01606-1.2992233-.76054-2.60102019-1.51657-3.90664989-2.26589-.14876896-.08536-.19273712-.183535-.19246334-.34859.00514695-3.097985.00607779-6.19586.00136887-9.29379-.00027378-.167255.04708918-.26488.1920253-.34804 1.31406195-.753665 2.62653596-1.510245 3.93353456-2.27612.1620197-.094985.258662-.08327.4031053.03223.3274888.26191.6728278.501985 1.0186595.73964.0607231.041745.1808005.066715.2365957.03465.7026144-.403535 1.3983845-.81895 2.1330852-1.253285-.4781194-.300575-.9354868-.588115-1.438465-.904255.3029587-.17842.566001-.33418.8299742-.488455.2993449-.17501.5945283-.35827.9023054-.51689.0887029-.04576.2385122-.0627.3196042-.018095.5595946.30767 1.1086217.634865 1.6601126.957385.0209711.012265.0324697.040865.0719479.09295-.4645402.284295-3.9753673 2.367805-5.2340173 3.191595-.9688325.634095-1.7692939 1.464595-2.3606464 2.481215-1.26160678 2.169035-.90920448 5.14184.8204469 6.95497.6087645.638165 1.2703128 1.208955 2.0138291 1.68102.0762735.0484.2153508.0847.281659.047685.6933608-.38621 1.3779061-.788535 2.0643131-1.18734.014072-.008195.0216829-.027775.0361382-.04719-.5209378-.3355-1.0487199-.659395-1.5596375-1.00837-.6430959-.439285-1.2416213-.93269-1.6910492-1.58257-.9061382-1.31021-.8095507-2.98056.2270136-4.18539.7521676-.87428 1.7023287-1.487915 2.6742275-2.070695 1.2445233-.74624 4.4200316-2.68664 4.7436876-2.9392.1162993-.09075.1932299-.11583.3316502-.03476 1.3308716.779295 2.6684234 1.54704 3.9981453 2.32826.0801063.04708.1557228.181115.1559966.27489.008925 3.125375.0098011 6.250805.0028472 9.37618-.000219.0957-.071017.23375-.1505211.280445-1.3456007.790075-2.6978268 1.568765-4.0488483 2.34949-.0308818.01782-.0647203.03058-.0878268.041305-.4158632-.299365-.8196255-.59697-1.2330248-.880385zm2.893904-9.336415c-.7014098-1.244155-1.7473919-2.14236-2.916682-2.911205-.0804896-.05291-.2612354-.018645-.3617106.03674-.5588281.308-1.1073623.63481-1.6590723.95579-.1074291.06248-.2133797.127545-.3478577.20812.0807634.055935.1293858.091025.1793769.124025.593488.391655 1.2033477.760705 1.7768501 1.17986.8063749.58938 1.4895513 1.291455 1.8095934 2.279585.0185619.0572.1127951.126775.1726421.1276.6546492.00913 1.3094626.00572 1.9867255.00572-.0378356-.607805-.2951287-1.394745-.6398654-2.006235z" fill-rule="evenodd"/></svg>

<svg xmlns="http://www.w3.org/2000/svg" width="32" height="32" viewBox="0 0 32 32">
  <path fill-rule="evenodd" d="M16,32 C7.163444,32 0,24.836556 0,16 C0,7.163444 7.163444,0 16,0 C24.836556,0 32,7.163444 32,16 C32,24.836556 24.836556,32 16,32 Z M16.0527013,5 L15.9431916,5 C15.8796212,5.04939 15.820705,5.107085 15.7517138,5.14707 C12.7671358,6.87704 9.7826125,8.607175 6.79403734,10.33016 C6.59013023,10.447695 6.50427461,10.572545 6.50482216,10.8212 C6.51243308,14.28554 6.50909304,17.74988 6.50000373,21.21422 C6.49945618,21.424155 6.55908423,21.543615 6.7418012,21.648775 C8.90062117,22.89172 11.0559916,24.140715 13.2099384,25.392185 C14.1238518,25.923155 15.0322897,26.46375 15.9431916,27 L16.0527013,27 C16.0959029,26.968155 16.136531,26.9318 16.1826346,26.905015 C19.1979301,25.156125 22.2133899,23.4074 25.2301639,21.66104 C25.3961258,21.56501 25.5007624,21.470245 25.4999958,21.24238 C25.4884973,17.750375 25.4871832,14.258315 25.4920564,10.766255 C25.4923301,10.561215 25.4184658,10.453965 25.2514635,10.35766 C22.7137399,8.89356 20.1778232,7.42627 17.6437681,5.95579 C17.1087584,5.645315 16.5827832,5.319 16.0527013,5 Z M18.8589099,22.4795665 C18.7941349,22.4352365 18.6637636,22.4163165 18.600467,22.4517915 C17.9238612,22.8304115 17.2545925,23.2221765 16.5839002,23.6114115 C16.5550991,23.6281865 16.5324306,23.6556315 16.4922405,23.6909965 C16.9744118,23.9923965 17.4431135,24.2854365 17.9563855,24.6063065 C17.5146233,24.8653015 17.088959,25.0620365 16.725551,25.3407215 C16.2196708,25.7286915 15.7797702,25.7311665 15.2746019,25.3405015 C14.923897,25.0692415 14.5108263,24.8793815 14.1263924,24.6518465 C14.1132512,24.6440915 14.1084876,24.6219815 14.0787009,24.5689615 C14.7113386,24.1917165 18.4353811,21.9968865 19.6057663,21.1915215 C20.6772094,20.4541915 21.5559155,19.4959815 22.0304758,18.2493515 C22.2298383,17.7255865 22.3181031,17.1587015 22.4499529,16.6098015 C22.4679124,16.5351115 22.4455177,16.4507415 22.4410826,16.3559765 C22.3444402,16.3506965 22.2643339,16.3425015 22.1842823,16.3424465 C20.1768595,16.3415115 18.1694915,16.3400265 16.1620687,16.3450315 C16.0644955,16.3453065 15.9167669,16.3731915 15.8771791,16.4393565 C15.4415495,17.1675015 15.0227295,17.9058215 14.572316,18.6883615 L18.997823,18.6883615 C19.0080074,18.7114615 19.0181918,18.7345615 19.0283762,18.7576065 C18.845057,18.9119365 18.6772881,19.0913465 18.4760639,19.2164165 C17.2908949,19.9529765 13.0265315,22.6256465 12.094549,23.2489065 C11.9490653,23.3462015 11.8543394,23.3495015 11.7097865,23.2649665 C10.4105632,22.5044265 9.10876631,21.7483965 7.80313661,20.9990765 C7.65436765,20.9137165 7.61039949,20.8155415 7.61067327,20.6504865 C7.61582022,17.5525015 7.61675106,14.4546265 7.61204214,11.3566965 C7.61176836,11.1894415 7.65913132,11.0918165 7.80406744,11.0086565 C9.11812939,10.2549915 10.4306034,9.4984115 11.737602,8.7325365 C11.8996217,8.6375515 11.996264,8.6492665 12.1407073,8.7647665 C12.4681961,9.0266765 12.8135351,9.2667515 13.1593668,9.5044065 C13.2200899,9.5461515 13.3401673,9.5711215 13.3959625,9.5390565 C14.0985769,9.1355215 14.794347,8.7201065 15.5290477,8.2857715 C15.0509283,7.9851965 14.5935609,7.6976565 14.0905827,7.3815165 C14.3935414,7.2030965 14.6565837,7.0473365 14.9205569,6.8930615 C15.2199018,6.7180515 15.5150852,6.5347915 15.8228623,6.3761715 C15.9115652,6.3304115 16.0613745,6.3134715 16.1424665,6.3580765 C16.7020611,6.6657465 17.2510882,6.9929415 17.8025791,7.3154615 C17.8235502,7.3277265 17.8350488,7.3563265 17.874527,7.4084115 C17.4099868,7.6927065 13.8991597,9.7762165 12.6405097,10.6000065 C11.6716772,11.2341015 10.8712158,12.0646015 10.2798633,13.0812215 C9.01825652,15.2502565 9.37065882,18.2230615 11.1003102,20.0361915 C11.7090747,20.6743565 12.370623,21.2451465 13.1141393,21.7172115 C13.1904128,21.7656115 13.3294901,21.8019115 13.3957983,21.7648965 C14.0891591,21.3786865 14.7737044,20.9763615 15.4601114,20.5775565 C15.4741834,20.5693615 15.4817943,20.5497815 15.4962496,20.5303665 C14.9753118,20.1948665 14.4475297,19.8709715 13.9366121,19.5219965 C13.2935162,19.0827115 12.6949908,18.5893065 12.2455629,17.9394265 C11.3394247,16.6292165 11.4360122,14.9588665 12.4725765,13.7540365 C13.2247441,12.8797565 14.1749052,12.2661215 15.146804,11.6833415 C16.3913273,10.9371015 19.5668356,8.9967015 19.8904916,8.7441415 C20.0067909,8.6533915 20.0837215,8.6283115 20.2221418,8.7093815 C21.5530134,9.4886765 22.8905652,10.2564215 24.2202871,11.0376415 C24.3003934,11.0847215 24.3760099,11.2187565 24.3762837,11.3125315 C24.3852087,14.4379065 24.3860848,17.5633365 24.3791309,20.6887115 C24.3789119,20.7844115 24.3081139,20.9224615 24.2286098,20.9691565 C22.8830091,21.7592315 21.530783,22.5379215 20.1797615,23.3186465 C20.1488797,23.3364665 20.1150412,23.3492265 20.0919347,23.3599515 C19.6760715,23.0605865 19.2723092,22.7629815 18.8589099,22.4795665 Z M21.7528139,13.1431515 C21.0514041,11.8989965 20.005422,11.0007915 18.8361319,10.2319465 C18.7556423,10.1790365 18.5748965,10.2133015 18.4744213,10.2686865 C17.9155932,10.5766865 17.367059,10.9034965 16.815349,11.2244765 C16.7079199,11.2869565 16.6019693,11.3520215 16.4674913,11.4325965 C16.5482547,11.4885315 16.5968771,11.5236215 16.6468682,11.5566215 C17.2403562,11.9482765 17.8502159,12.3173265 18.4237183,12.7364815 C19.2300932,13.3258615 19.9132696,14.0279365 20.2333117,15.0160665 C20.2518736,15.0732665 20.3461068,15.1428415 20.4059538,15.1436665 C21.060603,15.1527965 21.7154164,15.1493865 22.3926793,15.1493865 C22.3548437,14.5415815 22.0975506,13.7546415 21.7528139,13.1431515 Z"/>
</svg>
